X: 3635
T: Bill Nicholson's 67th
R: jig
M: 6/8
K: Gmajor
GBd edB|AGA ~B3|AcB AGD|EAA ABA|
GBd edB|AGA ~B3|AcB AGD|1 EGG G2F:|2 EGG G2f||
gBg gab|fAf agf|e/f/gf edA|Bee e2f|
gBg gab|~f3 agf|e/f/gf edA|BGG GBd|
~g3 gab|fAf agf|e/f/gf edA|Bee e2f|
gdB GED|CEG Ace|dBA GED|EGG G2F||

